X: 58
T:Alborada Galega (continuación)
M:2/4
L:1/16
Q:200
C:Pascual Veiga
R:Alborada
K:C
 |: {d}c3G AGAB |c2G2 A2B2 | 
c2G2 AGFA |G8 | A3G FGAF | G3F EFGE |F3E DFED |1 C8 
:|2 |: "A"C2 "F."G2 C"F."GC2 | D3B, CB,CD | E3C D2E2 | F3D EDEF |G8 | c3
B GA_B
G | A3G FGAF | GAGF EFGE | FGFE DEFD | EFED CDEC | DEDC B,CD"B"B, :||: C
8|
G6 ED | C6 DE |F2E2 D2C2 | D2 "~"E2 D4 | c6{d}c2 | B6 A2 |G2DE "~"F2E "d
e A a B 1 vez"D :|
|: C3"F."G C2B,2 | C3C B,CDB, :| C8 | c3B GA_BG | A3G FGAG | G3F EFGE |
F3EDEFD |E3D CDEC |DEDC B,CDB, | C4- CDEF |G4-GFED |C4- CDEF | G4-G2AB |
c4-c2BA | GAFG EFGA |GAFG EFDE |CDEF DCB,D |C4-CDEF| G4-GFED| C8||

